packages/web-icons/svgs/arrow_7_right.svg

<svg viewBox="0 0 48 48" xmlns="http://www.w3.org/2000/svg" class="ridi_icon"><path d="M19.4 17.6l6.2 6.2-6.1 6.1c-1.1 1.1-1.1 2.9 0 4s2.9 1.1 4 0l7.8-7.8.3-.3c.4-.4.6-.8.7-1.2.3-1 .1-2.1-.7-2.8-.1-.1-.3-.3-.5-.4l-7.7-7.7c-1.1-1.1-2.9-1.1-4 0-1.1 1-1.1 2.8 0 3.9zM0 24c0 13.3 10.7 24 24 24s24-10.7 24-24S37.3 0 24 0 0 10.7 0 24zm42 0c0 10-8.1 18-18 18S6 34 6 24 14 6 24 6s18 8 18 18z"/></svg>

<?xml version="1.0" encoding="UTF-8"?>
<svg width="48px" height="48px" viewBox="0 0 48 48" version="1.1" xmlns="http://www.w3.org/2000/svg">
  <!-- Generator: Sketch 41.2 (35397) - http://www.bohemiancoding.com/sketch -->
  <title>arrow_7_right</title>
  <desc>Created with Sketch.</desc>
  <defs></defs>
  <g id="Page-1" stroke="none" stroke-width="1" fill="none" fill-rule="evenodd">
    <g id="arrow_7_right" fill="#000000">
      <g id="레이어_1">
        <path d="M19.4,17.6 L25.6,23.8 L19.5,29.9 C18.4,31 18.4,32.8 19.5,33.9 C20.6,35 22.4,35 23.5,33.9 L31.3,26.1 C31.4,26 31.5,25.9 31.6,25.8 C32,25.4 32.2,25 32.3,24.6 C32.6,23.6 32.4,22.5 31.6,21.8 C31.5,21.7 31.3,21.5 31.1,21.4 L23.4,13.7 C22.3,12.6 20.5,12.6 19.4,13.7 C18.3,14.7 18.3,16.5 19.4,17.6 L19.4,17.6 Z M0,24 C0,37.3 10.7,48 24,48 C37.3,48 48,37.3 48,24 C48,10.7 37.3,0 24,0 C10.7,0 0,10.7 0,24 Z M42,24 C42,34 33.9,42 24,42 C14.1,42 6,34 6,24 C6,14 14,6 24,6 C34,6 42,14 42,24 Z" id="Shape"></path>
      </g>
    </g>
  </g>
</svg>
